flaticon/essential/television.svg

<svg xmlns="http://www.w3.org/2000/svg" width="32" height="32" viewBox="0 0 24 24">
    <path d="M 7.277344 22.199219 L 16.722656 22.199219 L 12 14.644531 Z M 8.722656 21.398438 L 12 16.15625 L 15.277344 21.398438 Z M 8.722656 21.398438"/>
    <path d="M 0 1.800781 L 0 17.800781 L 8.800781 17.800781 C 9.019531 17.800781 9.199219 17.621094 9.199219 17.398438 C 9.199219 17.179688 9.019531 17 8.800781 17 L 0.800781 17 L 0.800781 2.601562 L 23.199219 2.601562 L 23.199219 17 L 15.199219 17 C 14.980469 17 14.800781 17.179688 14.800781 17.398438 C 14.800781 17.621094 14.980469 17.800781 15.199219 17.800781 L 24 17.800781 L 24 1.800781 Z M 0 1.800781"/>
</svg>

<svg xmlns="http://www.w3.org/2000/svg" width="32" height="32" viewBox="0 0 24 24">
    <path d="M7.277 22.2h9.446L12 14.644zm1.446-.802L12 16.156l3.277 5.242zm0 0"/>
    <path d="M0 1.8v16h8.8a.401.401 0 0 0 0-.8h-8V2.602h22.4V17h-8a.4.4 0 0 0 0 .8H24v-16zm0 0"/>
</svg>
